X:62
T:Dan Breen's
Z: id:dc-reel-56
M:C
L:1/8
K:A Dorian
Bd|e2dB cABG|EAAG ABcd|e2dB cABG|EGGF G2:|!
Bd|e2ge edBd|eaag efge|e2ge edBc|d2ef g2:|!

